Default.style/office.svg

<svg width="28" height="32" xmlns="http://www.w3.org/2000/svg"><path d="M0 2V0h28v2H0Zm3 4h5V4h2v2h8V4h2v2h5V4h2v28h-6v-6h4v-4h-4v-1H7v1H3v4h4v6H1V4h2v2Zm17 15h5v-4h-5v4Zm0-5h5v-4h-5v4Zm0-5h5V7h-5v4ZM10 21h8v-4h-8v4Zm0-5h8v-4h-8v4Zm0-5h8V7h-8v4ZM3 21h5v-4H3v4Zm0-5h5v-4H3v4Zm0-5h5V7H3v4Zm18 13h-1v8H8v-8H7v-2h14v2Zm-8 0H9v7h4v-7Zm6 2v-2h-4v7h4v-5Z" fill="#888" fill-rule="evenodd"/></svg>

<?xml version="1.0" encoding="UTF-8" standalone="no"?>
<svg width="28px" height="32px" viewBox="0 0 28 32" version="1.1" xmlns="http://www.w3.org/2000/svg" xmlns:xlink="http://www.w3.org/1999/xlink" xmlns:sketch="http://www.bohemiancoding.com/sketch/ns">
    <!-- Generator: Sketch 3.2.2 (9983) - http://www.bohemiancoding.com/sketch -->
    <title>office</title>
    <desc>Created with Sketch.</desc>
    <defs></defs>
    <g id="p" stroke="none" stroke-width="1" fill="none" fill-rule="evenodd" sketch:type="MSPage">
        <g id="office" sketch:type="MSLayerGroup" fill="#888888">
            <path d="M0,2 L0,0 L1,0 L27,0 L28,0 L28,2 L0,2 L0,2 Z M3,6 L8,6 L8,4 L10,4 L10,6 L18,6 L18,4 L20,4 L20,6 L25,6 L25,4 L27,4 L27,32 L21,32 L21,26 L25,26 L25,22 L21,22 L21,21 L7,21 L7,22 L3,22 L3,26 L7,26 L7,32 L1,32 L1,4 L3,4 L3,6 L3,6 Z M20,21 L25,21 L25,17 L20,17 L20,21 L20,21 Z M20,16 L25,16 L25,12 L20,12 L20,16 L20,16 Z M20,11 L25,11 L25,7 L20,7 L20,11 L20,11 Z M10,21 L18,21 L18,17 L10,17 L10,21 L10,21 Z M10,16 L18,16 L18,12 L10,12 L10,16 L10,16 Z M10,11 L18,11 L18,7 L10,7 L10,11 L10,11 Z M3,21 L8,21 L8,17 L3,17 L3,21 L3,21 Z M3,16 L8,16 L8,12 L3,12 L3,16 L3,16 Z M3,11 L8,11 L8,7 L3,7 L3,11 L3,11 Z M21,24 L20,24 L20,26 L20,32 L8,32 L8,24 L7,24 L7,22 L21,22 L21,24 L21,24 Z M13,24 L9,24 L9,31 L13,31 L13,24 L13,24 Z M19,26 L19,24 L15,24 L15,31 L19,31 L19,26 L19,26 Z" id="Shape" sketch:type="MSShapeGroup"></path>
        </g>
    </g>
</svg>
